X:1
T:Title
%%score { ( 1 3 ) | ( 2 4 ) }
L:1/8
Q:1/4=114
M:4/4
K:C
V:1 treble nm="Grand Piano"
V:3 treble 
V:2 bass 
V:4 bass 
V:1
 [A,CF]2 [A,CF]2 [A,CF]2 [A,CF]2 | z4[K:bass] F4[K:treble] | [CFA]2 [CFA]2 [CFA]2 [DFA]2 | %3
w: C.~Harold~Lowden * * *|||
 [DFB]2 [G,DFA]2 [CEGc]4 | [A,CF]2 [A,CF]2 [A,CF]2 [A,CF]2 | %5
w: ||
 [G,_B,CF]2[K:bass] [C,B,CD]2 [F,A,CF]2[K:treble] [CFA]2 | [CEG]2 [B,DG]2 [EGc]2 [Gc]>[Acd] | %7
w: ||
 [Gce]2 [FGBd]2 [CEGc]4 | c4 z4 | c4 z4 | c>c B>c d2 c2 | c4 _B4 | d4 z4 | d4 z4 | d>d ^c>d e2 d2 | %15
w: ||||||||
 d4 c4 | c4 z4 | c4 z4 | c>c B>c f2 e2 | e4 d4 | e4 z4 | d4 z4 | c2 z2 z4 | [A,F]6 z2 |] %24
w: |||||||||
V:2
 [F,,F,]2 [C,,C,]2 [F,,F,]2 [C,,C,]2 | z z/ E/ z z/ E/ F,,2 [C,,C,]2 | %2
 [F,,F,]2 [C,,C,]2 [F,,F,]2 [D,,D,]2 | z z/ G/ z z/[K:treble] B/[K:bass] [C,,C,]2 [E,,E,]2 | %4
 [F,,F,]2 [C,,C,]2 [F,,F,]2 [C,,C,]2 | z z/ E/ z z/ E/ F,,2 [F,,F,]2 | %6
 [G,,G,]2 [F,,F,]2 [E,,E,]2 [E,,E,]>[F,,F,] | [G,,G,]2 [G,,G,]2 C,4 | F,,2 [F,A,]2 [F,A,C]2 z2 | %9
 F,,2 [F,A,]2 [F,A,C]2 z2 | F,,2 [F,A,C]2 A,,2 [F,A,C]2 | G,,2 [G,_B,C]2 [G,B,CE]2 [G,B,C]2 | %12
 C,,2 [G,_B,C]2 [G,B,CE]2 z2 | C,,2 [G,_B,C]2 [G,B,CE]2 z2 | C,,2 [G,_B,CE]2 [G,B,CE]2 [G,B,CE]2 | %15
 F,,2 [F,G,]2 [F,A,C]2 [F,A,]2 | F,,2 [F,A,]2 [F,A,C]2 z2 | F,,2 [F,A,]2 [F,A,C]2 z2 | %18
 F,,2 [F,A,C]2 A,,2 [F,A,C]2 | _B,,2 [F,_B,]2 [F,B,D]2 F,2 | E,,2 [E,^G,B,]2 [E,G,B,D]2 z2 | %21
 A,,2 [E,A,]2 [E,A,C]2 z2 | [G,,G,]2 z z/[K:treble] _B/[K:bass] C,2 C,2 | F,6 z2 |] %24
V:3
 x8 | [G,_B,CF]2[K:bass] [C,B,CD]2 [F,A,C]2[K:treble] [A,C]2 | x8 | x8 | x8 | %5
 x2[K:bass] x4[K:treble] x2 | x8 | x8 | z2 C2 A2 (3CFA | z2 C2 A2 (3CFA | x8 | z2 E2 z2 E2 | %12
 z2 E2 _B2 (3EGB | z2 E2 _B2 (3EGB | x8 | z2 B,2 z2 C2 | z2 C2 A2 (3CFA | z2 C2 A2 (3CFA | x8 | %19
 z2 D2 z2 _B,2 | z2 D2 d2 (3E^GB | z2 C2 c2 (3CEA | D->[D_B] [DA]2 [CEA]2 [_B,EG]2 | x8 |] %24
V:4
 x8 | G,,2 C,,2 z4 | x8 | [G,,G,]2 G,,2[K:treble][K:bass] z4 | x8 | G,,2 C,,2 z4 | x8 | x8 | x8 | %9
 x8 | x8 | x8 | x8 | x8 | x8 | x8 | x8 | x8 | x8 | x8 | x8 | x8 | %22
 z2 [G,,G,]2[K:treble][K:bass] z4 | x8 |] %24

